public/assets/images/icon-sad-white.svg

<svg width="30" height="31" viewBox="0 0 30 31" fill="none" xmlns="http://www.w3.org/2000/svg">
<circle cx="14.9998" cy="15.0647" r="14.9998" fill="white"/>
<path d="M14.9999 24.8052H17.9598C18.8926 24.8052 19.3306 23.9636 18.6331 23.5115L18.572 23.4719C16.5344 22.1516 13.4657 22.1516 11.428 23.4719L11.3667 23.5115C10.6692 23.9636 11.1074 24.8052 12.0403 24.8052H14.9999Z" fill="#21214D"/>
<path opacity="0.3" d="M8.64664 9.05117C9.6403 8.34133 10.4344 7.90046 11.0141 8.26569C11.5937 8.63091 11.6044 9.88257 10.7514 10.337C9.89832 10.7914 7.46673 12.2249 4.07226 11.3309C3.55182 11.2302 4.24235 10.001 5.66384 10.026C7.08533 10.0514 8.29238 9.29769 8.64664 9.05117Z" fill="#21214D"/>
<path opacity="0.3" d="M21.3537 9.05117C20.36 8.34133 19.5659 7.90046 18.9863 8.26569C18.4066 8.63091 18.3959 9.88257 19.249 10.337C20.102 10.7914 22.5336 12.2249 25.9281 11.3309C26.4485 11.2302 25.758 10.001 24.3365 10.026C22.915 10.0514 21.7079 9.29769 21.3537 9.05117Z" fill="#21214D"/>
</svg>

<svg xmlns="http://www.w3.org/2000/svg" width="30" height="31" fill="none" viewBox="0 0 30 31"><circle cx="15" cy="15.065" r="15" fill="#fff"/><path fill="#21214D" d="M15 24.805h2.96c.933 0 1.37-.841.673-1.293l-.061-.04c-2.038-1.32-5.106-1.32-7.144 0l-.061.04c-.698.452-.26 1.293.673 1.293H15ZM10.658 16.295c.24-.108.476-.228.69-.38a2.793 2.793 0 0 0 1.161-2.198.81.81 0 0 0-.053-.35c-.12-.264-.468-.363-.747-.283-.278.081-.496.298-.677.525-.18.227-.34.476-.56.665a2.388 2.388 0 0 1-.658.37c-.693.283-1.522.433-2.163.045-.13-.08-.248-.178-.366-.275-.299-.245-.618-.484-.992-.576-.375-.093-.82-.004-1.046.309-.188.259-.187.62-.064.916.123.296.353.534.599.739.809.672 1.865 1.051 2.915 1.004.679-.03 1.341-.232 1.96-.51ZM19.343 16.295a4.115 4.115 0 0 1-.691-.38 2.793 2.793 0 0 1-1.16-2.198.81.81 0 0 1 .052-.35c.12-.264.468-.363.747-.283.279.081.497.298.677.525.18.227.34.476.56.665.193.164.424.275.658.37.693.283 1.523.433 2.163.045.13-.08.248-.178.366-.275.299-.245.618-.484.992-.576.375-.093.82-.004 1.046.309.188.259.188.62.064.916-.123.296-.353.534-.599.739-.808.672-1.865 1.051-2.915 1.004-.679-.03-1.34-.232-1.96-.51Z"/><path fill="#21214D" d="M8.647 9.051c.993-.71 1.787-1.15 2.367-.785.58.365.59 1.617-.263 2.071-.853.454-3.284 1.888-6.679.994-.52-.1.17-1.33 1.592-1.305 1.421.025 2.628-.728 2.983-.975ZM21.354 9.051c-.994-.71-1.788-1.15-2.368-.785-.58.365-.59 1.617.263 2.071.853.454 3.285 1.888 6.68.994.52-.1-.171-1.33-1.592-1.305-1.422.025-2.63-.728-2.983-.975Z" opacity=".3"/></svg>
